X: 71
T: Late for the Dance
B: canberra pickers and fiddlers
B: old time tunes update
B: tunes
M:2/4
L:1/8
Q: 1/4=100
K:A
V:1 
[ee]>[ef] [ee]([ee]|e/)A/c BA|f>g f(f|f/)A/c BA:|
|:[GA]>[GB] [GA][G/A/][G/B/]|[G/c/][G/B/][G/c/][G/A/] [G/B/][G/A/][GA]|B>A BB/(c/|c/)B/c/A/ B/A/E:|
% abcbook-tune_id 67a7d9ecc1c2a628fc2e6785
% abcbook-tune_composer_id 
% abcbook-link-0 https://www.youtube.com/watch?v=f1vIhwODbQs
% abcbook-link-title-0 Late for the Dance
% abcbook-boost 0
% abcbook-difficulty 0
% abcbook-tags old time tunes
% abcbook-tablature 
% abcbook-transpose 
% abcbook-tuning AEAE
% abcbook-lastupdated 1739177638717
% abcbook-src-url 
% abcbook-soundfonts 
% abcbook-repeats 1


